X:165
T:Canny Newcassel
Z:Jack Campin, http://www.campin.me.uk/
F:Jack Campin's Nine-Note Tunebook
% last edit 03-02-2013
S:Crawhall: A Beuk o' Newcassel Sangs
M:6/8
L:1/8
Q:3/8=100
K:C
P:Verse
G   |c>Bc E>FG|F>EF D2 G/F/|E>DC G>FE|ED2 z2
G   |c>Bc E>FG|F>EF D2 G/F/|E>FG AdB |cc2 z2||
c/B/|B>AG c2c |B>AG c2 G/F/|E>FG GFE |ED2 z2
c   |B>AG ccc |B>AG c2 E/F/|GAG  GFE |DC2 z2||
P:Chorus
G   |c>Bc E>FG|F>EF D2 G/F/|E>DC G>FE|ED2 z2
G   |c>Bc E>FG|F>EF D2 G/F/|E>FG AdB |cc2 z2|]

